src/assets/images/arrow.svg

<svg fill="none" height="16" viewBox="0 0 18 16" width="18" xmlns="http://www.w3.org/2000/svg"><path d="m16.25 6.75001h-12.5l4.1125-4.1125c.11716-.1162.21015-.25445.27362-.40677.06346-.15233.09613-.31571.09613-.48073 0-.16501-.03267-.32839-.09613-.48072-.06347-.15232-.15646-.290572-.27362-.406776-.2342-.232814-.55102-.363491-.88125-.363491s-.64705.130677-.88125.363491l-5.3625 5.374996c-.469485.46669-.73470901 1.10053-.7375 1.7625.00608323.65764.271056 1.28638.7375 1.75l5.3625 5.37499c.11655.1157.25475.2074.40671.2697.15197.0623.31472.0941.47896.0935s.32677-.0335.47828-.0969c.15152-.0634.28907-.156.4048-.2725.11573-.1166.20737-.2548.26968-.4067.06232-.152.0941-.3148.09352-.479-.00058-.1643-.03351-.3268-.0969-.4783s-.156-.2891-.27255-.4048l-4.1125-4.09999h12.5c.3315 0 .6495-.13169.8839-.36611s.3661-.55237.3661-.88389-.1317-.64946-.3661-.88388-.5524-.36612-.8839-.36612z" fill="#9597a3"/></svg>

<svg width="18" height="16" viewBox="0 0 18 16" fill="none" xmlns="http://www.w3.org/2000/svg">
<path d="M16.25 6.75001H3.75L7.8625 2.63751C7.97966 2.52131 8.07265 2.38306 8.13612 2.23074C8.19958 2.07841 8.23225 1.91503 8.23225 1.75001C8.23225 1.585 8.19958 1.42162 8.13612 1.26929C8.07265 1.11697 7.97966 0.978718 7.8625 0.862514C7.6283 0.6297 7.31148 0.499023 6.98125 0.499023C6.65102 0.499023 6.3342 0.6297 6.1 0.862514L0.7375 6.23751C0.268015 6.7042 0.00279099 7.33804 0 8.00001C0.00608323 8.65765 0.271056 9.28639 0.7375 9.75001L6.1 15.125C6.21655 15.2407 6.35475 15.3324 6.50671 15.3947C6.65868 15.457 6.82143 15.4888 6.98567 15.4882C7.14991 15.4876 7.31244 15.4547 7.46395 15.3913C7.61547 15.3279 7.75302 15.2353 7.86875 15.1188C7.98448 15.0022 8.07612 14.864 8.13843 14.7121C8.20075 14.5601 8.23253 14.3973 8.23195 14.2331C8.23137 14.0688 8.19844 13.9063 8.13505 13.7548C8.07166 13.6033 7.97905 13.4657 7.8625 13.35L3.75 9.25001H16.25C16.5815 9.25001 16.8995 9.11832 17.1339 8.8839C17.3683 8.64948 17.5 8.33153 17.5 8.00001C17.5 7.66849 17.3683 7.35055 17.1339 7.11613C16.8995 6.88171 16.5815 6.75001 16.25 6.75001Z" fill="#9597A3"/>
</svg>
